X: 235
T:Judy and Jim's Wedding
R:waltz
C:Larry Unger
Z:added by Alf warnock alf0@rogers.com - www.alfwarnock.info/alfs
Z: For the dance "Sunlight through Draperies
Z: writen for Judy Erickson and Jim Ialeggio
M:3/4
L:1/8
K:D
"D"D3E FG|"Em7"A2 d3c|"F#m7"A2 d2 fd|"G"G4 de|\
"D"d3c BA|"Bm"B2 A2 D2| "G"FG FE DE|"A7"D2 C2 A,2|
"D"D3E FG|"Em7"A2 d3c|"F#m7"F2 d2 fd|"G"G4 de|\
"D"f3e dc|"G"d2 c2 B2| "A7"A2 d3c|"D"d4 de||
"D"f3e df|"A7"e2 d2 c2| "Bm"d3e dc|"G"c2 B2 FG|\
"D"A2 d3A|"Em7"G2 d3A|"D/F#"F2 d2 F2| "A7"E4 de|
"Bm"f3e df|"Em7"e2 d2 e2| "F#m7"f2 a2 ef|"G"g2 f2 de|\
"D"f3e dc|"G"d2 c2 B2| "A7"A2 d3c|"D"d6|]
